Newaita/actions/32/im-user-offline.svg

<svg height="32" viewBox="0 0 32 32" width="32" xmlns="http://www.w3.org/2000/svg"><g fill="#424242" fill-opacity=".392157"><path d="m15.875 2.894531c-3.664062 0-6.613281 2.953125-6.613281 6.617188 0 3.664062 2.949219 6.613281 6.613281 6.613281 3.667969 0 6.617188-2.949219 6.617188-6.613281 0-3.664063-2.949219-6.617188-6.617188-6.617188zm0 2.648438c2.199219 0 3.96875 1.769531 3.96875 3.96875s-1.769531 3.96875-3.96875 3.96875-3.96875-1.769531-3.96875-3.96875 1.769531-3.96875 3.96875-3.96875zm0 0"/><path d="m20.503906 16.792969c-.164062 0-.332031.035156-.484375.09375-3.085937 1.234375-5.203125 1.234375-8.285156 0-.28125-.113281-.597656-.121094-.886719-.03125-.882812.28125-2.480468.621093-3.945312 1.40625-1.46875.789062-2.925782 2.300781-2.925782 4.480469v1.984374h-.007812v1.984376c0 1.464843 1.179688 2.644531 2.644531 2.644531h18.523438c1.46875 0 2.648437-1.179688 2.648437-2.644531v-1.984376h-.007812v-1.984374c0-2.179688-1.457032-3.695313-2.925782-4.488282-1.464843-.789062-3.0625-1.125-3.957031-1.402344-.125-.039062-.257812-.058593-.390625-.058593zm.039063 2.703125c1.011719.292968 2.167969.597656 3.0625 1.078125 1.011719.546875 1.539062 1.039062 1.539062 2.167969v1.984374h-.007812v.660157c0 .734375-.589844 1.324219-1.320313 1.324219h-15.878906c-.730469 0-1.324219-.589844-1.324219-1.324219v-.660157h-.003906v-1.984374c0-1.128907.523437-1.617188 1.539063-2.160157.890624-.476562 2.046874-.78125 3.066406-1.085937 3.195312 1.175781 6.128906 1.175781 9.328125 0zm0 0"/></g></svg>

<svg xmlns="http://www.w3.org/2000/svg" xmlns:xlink="http://www.w3.org/1999/xlink" width="32px" height="32px" viewBox="0 0 32 32" version="1.1">
<g id="surface1">
<path style=" stroke:none;fill-rule:nonzero;fill:rgb(25.882354%,25.882354%,25.882354%);fill-opacity:0.392157;" d="M 15.875 2.894531 C 12.210938 2.894531 9.261719 5.847656 9.261719 9.511719 C 9.261719 13.175781 12.210938 16.125 15.875 16.125 C 19.542969 16.125 22.492188 13.175781 22.492188 9.511719 C 22.492188 5.847656 19.542969 2.894531 15.875 2.894531 Z M 15.875 5.542969 C 18.074219 5.542969 19.84375 7.3125 19.84375 9.511719 C 19.84375 11.710938 18.074219 13.480469 15.875 13.480469 C 13.675781 13.480469 11.90625 11.710938 11.90625 9.511719 C 11.90625 7.3125 13.675781 5.542969 15.875 5.542969 Z M 15.875 5.542969 "/>
<path style=" stroke:none;fill-rule:nonzero;fill:rgb(25.882354%,25.882354%,25.882354%);fill-opacity:0.392157;" d="M 20.503906 16.792969 C 20.339844 16.792969 20.171875 16.828125 20.019531 16.886719 C 16.933594 18.121094 14.816406 18.121094 11.734375 16.886719 C 11.453125 16.773438 11.136719 16.765625 10.847656 16.855469 C 9.964844 17.136719 8.367188 17.476562 6.902344 18.261719 C 5.433594 19.050781 3.976562 20.5625 3.976562 22.742188 L 3.976562 24.726562 L 3.96875 24.726562 L 3.96875 26.710938 C 3.96875 28.175781 5.148438 29.355469 6.613281 29.355469 L 25.136719 29.355469 C 26.605469 29.355469 27.785156 28.175781 27.785156 26.710938 L 27.785156 24.726562 L 27.777344 24.726562 L 27.777344 22.742188 C 27.777344 20.5625 26.320312 19.046875 24.851562 18.253906 C 23.386719 17.464844 21.789062 17.128906 20.894531 16.851562 C 20.769531 16.8125 20.636719 16.792969 20.503906 16.792969 Z M 20.542969 19.496094 C 21.554688 19.789062 22.710938 20.09375 23.605469 20.574219 C 24.617188 21.121094 25.144531 21.613281 25.144531 22.742188 L 25.144531 24.726562 L 25.136719 24.726562 L 25.136719 25.386719 C 25.136719 26.121094 24.546875 26.710938 23.816406 26.710938 L 7.9375 26.710938 C 7.207031 26.710938 6.613281 26.121094 6.613281 25.386719 L 6.613281 24.726562 L 6.609375 24.726562 L 6.609375 22.742188 C 6.609375 21.613281 7.132812 21.125 8.148438 20.582031 C 9.039062 20.105469 10.195312 19.800781 11.214844 19.496094 C 14.410156 20.671875 17.34375 20.671875 20.542969 19.496094 Z M 20.542969 19.496094 "/>
</g>
</svg>
